X:109
T:John Brennan's
L:1/8
M:4/4
R:Reel
K:D
D2FA d2ed | cdBc ADFA | BAGB ADFA | BAGF EGFE |
D2FA d2ed | cdBc ADFA | BAGB ABde | faeg fdd2 :|
|: f2df e2de | fedB ADFA | BAGB ADFA | BAGF EGFE |
f2df e2de | fedB ADFA | BAGB ABde | faeg fdd2 :|

